src/assets/startUpServiceImage.svg

<svg xmlns="http://www.w3.org/2000/svg" width="84" height="87" fill="none" viewBox="0 0 84 87"><g clip-path="url(#clip0_42_1011)"><path fill="#0FAA61" d="M78.0677 72.8155H5.69043V71.1173C5.69043 55.4559 5.69043 39.7945 5.69043 24.1331C5.69043 20.6026 7.12896 19.1796 10.6901 19.1763H29.5859C30.2566 22.1766 29.4451 23.2035 26.4975 23.2035C21.6912 23.2035 16.8848 23.2035 12.0784 23.2035C9.97255 23.2035 9.73111 23.4418 9.73111 25.4822C9.73111 39.1815 9.73111 52.8819 9.73111 66.5834C9.73111 68.5533 10.0061 68.8319 11.951 68.8319C31.9008 68.8319 51.8484 68.8319 71.7937 68.8319C73.8526 68.8319 74.1007 68.5768 74.1007 66.4995C74.1007 52.8517 74.1007 39.2038 74.1007 25.556C74.1007 23.4015 73.8828 23.2068 71.6562 23.1901H57.5724C54.5377 23.1901 53.8838 22.482 54.0448 19.2803C54.4561 19.2201 54.8702 19.1809 55.2855 19.1628C61.4332 19.1628 67.5808 19.1628 73.7285 19.1628C76.4883 19.1628 78.1247 20.7838 78.128 23.5257C78.1414 39.6345 78.1414 55.7434 78.128 71.8523C78.118 72.1476 78.0844 72.4161 78.0677 72.8155Z"/><path fill="#0FAA61" d="M41.802 86.3134H6.61607C1.6968 86.3134 -1.27421 82.0915 0.536562 77.4367C0.87189 76.6179 2.15285 75.6681 3.01464 75.6513C10.7775 75.5137 18.5403 75.5607 26.3065 75.601C26.5316 75.6311 26.7467 75.7132 26.9346 75.8408C27.1226 75.9683 27.2784 76.1378 27.3896 76.336C29.0059 80.2323 31.8361 81.37 35.9774 81.0344C41.1448 80.6417 46.3726 80.8934 51.5534 80.9505C52.8109 80.9505 53.7297 80.6619 54.2964 79.5141C54.3199 79.4638 54.3668 79.4235 54.3869 79.3732C55.6846 76.0541 58.0755 75.2755 61.5529 75.46C67.6793 75.7956 73.836 75.5507 79.9959 75.5574C82.6149 75.5574 83.4901 76.4501 83.5035 79.0845V80.2591C83.4834 84.1588 81.3809 86.3 77.5112 86.3C65.6025 86.3179 53.6995 86.3224 41.802 86.3134Z"/><path fill="#fff" d="M12.4676 25.999H24.308C22.8359 27.1166 21.6992 28.0831 20.4584 28.8886C19.3887 29.5833 19.0031 30.4525 19.0769 31.6908C19.1473 33.0883 19.1473 34.4884 19.0769 35.8859C19.0098 37.3759 19.6033 38.0337 21.1358 37.9968C23.7044 37.933 26.2764 37.9968 28.8483 37.9968C29.7757 38.0254 30.6688 38.3538 31.3942 38.9327C32.1195 39.5116 32.6381 40.31 32.8723 41.2085C33.3853 43.202 33.8783 45.1988 34.4282 47.2896L36.4402 47.4775V54.3574C35.5035 54.0982 34.5216 54.0469 33.5631 54.2068C32.6046 54.3668 31.6924 54.7343 30.8905 55.2836C30.6122 55.4716 29.9583 55.2434 29.5492 55.0554C24.7372 52.8102 19.8448 54.8977 18.081 59.9451C17.9301 60.368 17.6283 60.9519 17.2728 61.0593C14.9892 61.7775 13.5205 63.3246 12.4441 65.9222L12.4676 25.999Z"/><path fill="#fff" d="M47.3551 47.4406L49.3671 47.303C49.8924 45.2469 50.4189 43.1975 50.9465 41.1548C51.198 40.2634 51.7264 39.4753 52.4553 38.9046C53.1842 38.3338 54.0756 38.01 55.0006 37.98C57.5692 37.98 60.1378 37.9465 62.7131 37.98C64.1249 38.0069 64.8257 37.4498 64.7251 36.0033C64.7184 35.9476 64.7184 35.8912 64.7251 35.8355C65.4461 31.4727 64.2691 28.0261 59.5342 26.3816L59.8964 26.046H71.3445V65.8047C70.2849 63.2072 68.7155 61.6399 66.338 60.9587C66.0731 60.8815 65.8853 60.3646 65.7613 60.019C63.8633 54.74 59.2827 52.8337 54.0684 55.1293C53.638 55.3021 53.1575 55.3021 52.7271 55.1293C50.2859 53.9748 49.9774 53.901 47.2813 54.3003C47.2813 52.4444 47.2813 50.6087 47.2813 48.7696C47.2713 48.3434 47.3216 47.9172 47.3551 47.4406Z"/><path fill="#0FAA61" d="M68.4269 66.1035H15.4451C15.6571 65.3968 16.0802 64.7721 16.6575 64.3131C17.2348 63.8542 17.9385 63.583 18.6743 63.5361C19.9318 63.4053 20.3509 62.8414 20.4918 61.6299C20.9411 57.9383 24.6733 55.7166 27.869 57.2369C28.2747 57.4282 28.4961 58.1766 28.6335 58.7102C28.7341 59.1129 28.3921 59.6633 28.5531 60.0056C28.8046 60.5493 29.3109 60.9721 29.7099 61.4453C30.1928 61.0091 30.7796 60.6466 31.1317 60.1231C31.7018 59.2774 31.9063 58.0826 32.634 57.4752C34.5152 55.9046 37.3051 57.0523 37.8014 59.519C38.0127 60.5896 38.1636 61.734 39.5351 61.3682C40.9066 61.0023 40.8261 59.6297 40.3298 58.7169C38.3715 55.1193 39.6088 51.2934 39.1226 47.481H44.5784C44.5784 50.3168 44.5985 53.0989 44.5583 55.871C44.5583 56.2804 44.2229 56.6731 44.0854 57.0892C43.7937 57.9819 43.3175 58.8881 43.331 59.774C43.331 60.3311 44.1022 60.8782 44.5247 61.4319C44.9875 60.9721 45.467 60.5258 45.9063 60.0425C45.9968 59.9452 45.9298 59.7069 45.9633 59.5525C46.3322 57.8745 47.6399 56.7671 49.2596 56.7603C50.0506 56.7453 50.8205 57.0163 51.4278 57.5237C52.0352 58.0311 52.4393 58.7408 52.5659 59.5223C52.7403 60.5291 52.9012 61.5729 54.1856 61.338C55.5269 61.093 55.5 59.8848 55.1714 58.9149C54.7958 57.8074 55.2385 57.4181 56.1774 57.0792C56.9417 56.7969 57.7606 56.6942 58.5709 56.7789C59.3812 56.8636 60.1612 57.1335 60.8508 57.5677C61.5403 58.002 62.1209 58.5889 62.5479 59.2834C62.9748 59.9778 63.2367 60.7611 63.3132 61.5729C63.4741 62.875 63.9469 63.4187 65.2547 63.5596C66.6933 63.714 67.773 64.5497 68.4269 66.1035Z"/><path fill="#2ECC82" d="M48.9378 8.91696C50.6144 11.7159 51.1777 14.7128 51.2347 17.7802C51.3421 23.5324 51.3018 29.288 51.2817 35.0402C51.2817 36.9195 50.2422 37.9599 48.3778 37.9733C44.0252 38.0069 39.6659 38.0069 35.3 37.9733C33.6233 37.9565 32.5033 36.9229 32.5167 35.2717C32.5737 28.5161 32.5871 21.7571 32.8822 15.0115C32.9728 12.9777 33.9251 10.9842 34.5589 8.73572C39.5352 11.8602 44.2163 11.9005 48.9378 8.91696ZM41.916 19.1964C40.1408 19.1964 38.438 19.9008 37.1808 21.1552C35.9237 22.4096 35.2147 24.1117 35.2094 25.8883C35.2094 27.6644 35.9128 29.3681 37.1654 30.6262C38.4181 31.8842 40.1179 32.5941 41.8925 32.6004C43.6677 32.6004 45.3705 31.896 46.6277 30.6416C47.8848 29.3872 48.5937 27.6851 48.5991 25.9085C48.5991 24.1324 47.8957 22.4287 46.6431 21.1706C45.3904 19.9125 43.6906 19.2027 41.916 19.1964Z"/><path fill="#2ECC82" d="M36.5407 44.6518C36.1014 42.9168 35.6722 41.2018 35.2195 39.4064H48.589L47.2477 44.6518H36.5407Z"/><path fill="#2ECC82" d="M53.4447 75.6446C52.774 77.6381 51.6574 78.3831 49.575 78.3294C44.3875 78.1582 39.1798 78.1314 34.0023 78.3294C31.8529 78.4167 31.1017 77.3226 30.2634 75.6446H53.4447Z"/><path fill="#2ECC82" d="M29.7066 35.2214H21.9571C21.367 32.7278 21.7258 30.7981 24.1569 29.4154C26.0716 28.3281 27.7382 26.8045 29.7066 25.3312V35.2214Z"/><path fill="#2ECC82" d="M62.0256 35.255H54.075V25.3145C56.7173 27.3012 59.239 29.1 61.6198 31.0767C62.0558 31.4392 61.9552 32.5064 62.0122 33.2514C62.0725 33.8421 62.0256 34.4562 62.0256 35.255Z"/><path fill="#2ECC82" d="M41.8823 0.0167847C44.0318 2.26532 45.8862 4.2118 47.7472 6.16165C44.5448 9.13172 39.7228 9.18207 36.0107 6.25563L41.8823 0.0167847Z"/><path fill="#2ECC82" d="M45.9232 25.9219C45.9108 26.9921 45.4757 28.0139 44.713 28.7641C43.9502 29.5143 42.9218 29.9319 41.8523 29.9256C40.8104 29.9017 39.8178 29.4768 39.0808 28.7392C38.3439 28.0017 37.9194 27.0083 37.8955 25.9655C37.8847 24.8932 38.2996 23.8605 39.0491 23.0941C39.7985 22.3277 40.8212 21.8903 41.8926 21.8779"/></g><defs><clipPath id="clip0_42_1011"><rect width="83.487" height="86.317" fill="#fff"/></clipPath></defs></svg>

<svg xmlns="http://www.w3.org/2000/svg" width="84" height="87" fill="none"><g clip-path="url(#a)"><path fill="#0FAA61" d="M78.068 72.816H5.69V24.133c0-3.53 1.439-4.953 5-4.957h18.896c.67 3-.14 4.027-3.088 4.027h-14.42c-2.105 0-2.347.239-2.347 2.28v41.1c0 1.97.275 2.249 2.22 2.249h59.843c2.059 0 2.307-.255 2.307-2.332V25.555c0-2.155-.218-2.35-2.445-2.366H57.572c-3.034 0-3.688-.708-3.527-3.91.411-.06.825-.1 1.24-.117H73.73c2.76 0 4.396 1.62 4.399 4.363.013 16.109.013 32.217 0 48.326-.01.296-.044.564-.06.963ZM41.802 86.313H6.616c-4.92 0-7.89-4.222-6.08-8.876.336-.82 1.617-1.769 2.479-1.786 7.762-.137 15.525-.09 23.291-.05a1.463 1.463 0 0 1 1.084.735c1.616 3.896 4.446 5.034 8.587 4.698 5.168-.392 10.396-.14 15.576-.084 1.258 0 2.177-.288 2.743-1.436.024-.05.07-.09.09-.14 1.299-3.32 3.69-4.099 7.167-3.914 6.126.336 12.283.09 18.443.097 2.619 0 3.494.893 3.508 3.528v1.174c-.02 3.9-2.123 6.041-5.993 6.041-11.908.018-23.811.022-35.709.013Z"/><path fill="#fff" d="M12.468 25.999h11.84c-1.472 1.118-2.609 2.084-3.85 2.89-1.07.694-1.455 1.564-1.381 2.802a41.69 41.69 0 0 1 0 4.195c-.067 1.49.526 2.148 2.059 2.11 2.568-.063 5.14 0 7.712 0a4.294 4.294 0 0 1 4.024 3.212c.513 1.994 1.006 3.99 1.556 6.082l2.012.188v6.88a6.672 6.672 0 0 0-5.55.926c-.278.188-.932-.04-1.34-.229-4.813-2.245-9.705-.157-11.469 4.89-.15.423-.453 1.007-.808 1.114-2.284.719-3.752 2.266-4.829 4.863L12.468 26ZM47.355 47.44l2.012-.137c.525-2.056 1.052-4.105 1.58-6.148A4.362 4.362 0 0 1 55 37.98c2.568 0 5.137-.033 7.712 0 1.412.027 2.113-.53 2.012-1.977a.703.703 0 0 1 0-.167c.721-4.363-.456-7.81-5.19-9.454l.361-.336h11.448v39.759c-1.06-2.598-2.628-4.165-5.006-4.846-.265-.078-.453-.594-.577-.94-1.898-5.279-6.478-7.185-11.693-4.89a1.8 1.8 0 0 1-1.34 0c-2.442-1.154-2.75-1.228-5.447-.829v-5.53c-.01-.427.04-.853.074-1.33Z"/><path fill="#0FAA61" d="M68.427 66.103H15.445a3.614 3.614 0 0 1 3.23-2.567c1.257-.13 1.676-.695 1.817-1.906.45-3.692 4.181-5.913 7.377-4.393.406.191.627.94.765 1.473.1.403-.242.953-.08 1.296.25.543.757.966 1.156 1.44.483-.437 1.07-.8 1.422-1.323.57-.846.774-2.04 1.502-2.648 1.881-1.57 4.671-.423 5.167 2.044.212 1.07.363 2.215 1.734 1.85 1.372-.367 1.291-1.74.795-2.652-1.959-3.598-.721-7.424-1.207-11.236h5.455c0 2.836.02 5.618-.02 8.39 0 .41-.335.802-.473 1.218-.291.893-.767 1.8-.754 2.685 0 .557.771 1.104 1.194 1.658.462-.46.942-.906 1.381-1.39.09-.097.024-.335.057-.49.37-1.678 1.677-2.785 3.297-2.792a3.284 3.284 0 0 1 3.306 2.762c.174 1.007.335 2.05 1.62 1.816 1.34-.245 1.314-1.453.985-2.423-.375-1.108.068-1.497 1.006-1.836a5.314 5.314 0 0 1 6.37 2.204 5.31 5.31 0 0 1 .766 2.29c.161 1.302.634 1.846 1.942 1.987 1.438.154 2.518.99 3.172 2.543Z"/><path fill="#2ECC82" d="M48.938 8.917c1.676 2.799 2.24 5.796 2.297 8.863.107 5.752.067 11.508.047 17.26 0 1.88-1.04 2.92-2.904 2.933a848.37 848.37 0 0 1-13.078 0c-1.677-.017-2.797-1.05-2.783-2.701.057-6.756.07-13.515.365-20.26.09-2.034 1.043-4.028 1.677-6.276 4.976 3.124 9.657 3.164 14.379.181Zm-7.022 10.28a6.704 6.704 0 0 0-4.735 1.958 6.715 6.715 0 0 0-1.972 4.733c0 1.776.704 3.48 1.956 4.738a6.705 6.705 0 0 0 4.727 1.974 6.704 6.704 0 0 0 4.736-1.958 6.715 6.715 0 0 0 1.971-4.733c0-1.777-.703-3.48-1.956-4.738a6.704 6.704 0 0 0-4.727-1.975ZM36.54 44.652c-.439-1.735-.868-3.45-1.32-5.246h13.369l-1.341 5.246H36.54Zm16.905 30.993c-.671 1.993-1.788 2.738-3.87 2.684-5.188-.17-10.395-.198-15.573 0-2.15.088-2.9-1.006-3.739-2.684h23.182ZM29.707 35.221h-7.75c-.59-2.493-.231-4.423 2.2-5.806 1.915-1.087 3.581-2.61 5.55-4.084v9.89Zm32.319.034h-7.951v-9.94c2.642 1.986 5.164 3.785 7.545 5.762.436.362.335 1.43.392 2.174.06.591.014 1.205.014 2.004Z"/><path fill="#2ECC82" d="M41.882.017c2.15 2.248 4.004 4.195 5.865 6.145-3.202 2.97-8.024 3.02-11.736.094l5.871-6.24Zm4.041 25.905a4.053 4.053 0 0 1-4.07 4.004 4.05 4.05 0 0 1-3.958-3.96 4.048 4.048 0 0 1 3.998-4.088"/></g><defs><clipPath id="a"><path fill="#fff" d="M0 0h83.487v86.317H0z"/></clipPath></defs></svg>
